dist/img/icons/specialty/9.svg

<svg width="64" height="64" viewBox="0 0 64 64" fill="none" xmlns="http://www.w3.org/2000/svg">
<path d="M48 9.58667V8H42.4133C40.5682 8.00245 38.7497 8.4395 37.105 9.27575C35.4603 10.112 34.0357 11.3239 32.9467 12.8133C32.2948 10.2946 30.826 8.06318 28.7704 6.46839C26.7148 4.8736 24.1884 4.0055 21.5867 4H16V5.58667C16.0035 8.70099 17.2423 11.6868 19.4444 13.8889C21.6466 16.0911 24.6323 17.3298 27.7467 17.3333H30.6667V28H33.3333V21.7067L54.3467 26.96L32 35.9067L8.78667 28.08L27.0533 22.6667L26.28 20L4 26.6667V29.3333L32 38.7467L57.3333 28.64V36.4267L32 46.5733L4 36.7867V50.28L32 60.0933L60 48.6533V45.76L32 57.24L6.66667 48.3867V40.5467L32 49.4267L60 38.24V25.6267L40.1333 20.6667C42.4299 19.8609 44.42 18.3624 45.829 16.3779C47.238 14.3933 47.9965 12.0205 48 9.58667ZM42.4133 10.6667H45.3333C45.0664 12.8705 44.0025 14.9006 42.3422 16.3742C40.682 17.8479 38.5399 18.6632 36.32 18.6667H33.4C33.6669 16.4628 34.7308 14.4327 36.3911 12.9591C38.0514 11.4855 40.1934 10.6701 42.4133 10.6667ZM27.7467 14.6667C25.5267 14.6632 23.3847 13.8479 21.7244 12.3742C20.0641 10.9006 19.0002 8.87051 18.7333 6.66667H21.5867C23.8181 6.65375 25.9763 7.46178 27.6507 8.93694C29.325 10.4121 30.3984 12.4514 30.6667 14.6667H27.7467Z" fill="#F1B08D"/>
</svg>

<svg width="64" height="64" fill="none" xmlns="http://www.w3.org/2000/svg"><path d="M48 9.587V8h-5.587a11.746 11.746 0 00-9.466 4.813A11.76 11.76 0 0021.587 4H16v1.587a11.76 11.76 0 0011.747 11.746h2.92V28h2.666v-6.293l21.014 5.253L32 35.907 8.787 28.08l18.266-5.413L26.28 20 4 26.667v2.666l28 9.414L57.333 28.64v7.787L32 46.573 4 36.787V50.28l28 9.813 28-11.44V45.76L32 57.24 6.667 48.387v-7.84L32 49.427 60 38.24V25.627l-19.867-4.96A11.76 11.76 0 0048 9.587zm-5.587 1.08h2.92a9.093 9.093 0 01-9.013 8H33.4a9.093 9.093 0 019.013-8zm-14.666 4a9.093 9.093 0 01-9.014-8h2.854a9.094 9.094 0 019.08 8h-2.92z" fill="#F1B08D"/></svg>
